src/components/Icon/svg-icon/main/sentiment.svg

<svg xmlns="http://www.w3.org/2000/svg" width="24" height="24" viewBox="0 0 24 24">
  <path fill="#677078" d="M11.99,2 C6.47,2 2,6.48 2,12 C2,17.52 6.47,22 11.99,22 C17.52,22 22,17.52 22,12 C22,6.48 17.52,2 11.99,2 Z M12,20 C7.58,20 4,16.42 4,12 C4,7.58 7.58,4 12,4 C16.42,4 20,7.58 20,12 C20,16.42 16.42,20 12,20 Z M9,15 L15,15 L15,16.5 L9,16.5 L9,15 Z M15.5,11 C16.3284271,11 17,10.3284271 17,9.5 C17,8.67157288 16.3284271,8 15.5,8 C14.6715729,8 14,8.67157288 14,9.5 C14,10.3284271 14.6715729,11 15.5,11 Z M8.5,11 C9.32842712,11 10,10.3284271 10,9.5 C10,8.67157288 9.32842712,8 8.5,8 C7.67157288,8 7,8.67157288 7,9.5 C7,10.3284271 7.67157288,11 8.5,11 Z"/>
</svg>

<svg xmlns="http://www.w3.org/2000/svg" width="24" height="24"><path fill="#677078" d="M11.99 2C6.47 2 2 6.48 2 12s4.47 10 9.99 10C17.52 22 22 17.52 22 12S17.52 2 11.99 2zM12 20c-4.42 0-8-3.58-8-8s3.58-8 8-8 8 3.58 8 8-3.58 8-8 8zm-3-5h6v1.5H9V15zm6.5-4a1.5 1.5 0 100-3 1.5 1.5 0 000 3zm-7 0a1.5 1.5 0 100-3 1.5 1.5 0 000 3z"/></svg>
